svgs/light/gamepad.svg

<svg xmlns="http://www.w3.org/2000/svg" viewBox="0 0 640 512"><!-- Font Awesome Pro 6.0.0-alpha2 by @fontawesome - https://fontawesome.com License - https://fontawesome.com/license (Commercial License) --><path d="M448 64H192C85.961 64 0 149.961 0 256S85.961 448 192 448H448C554.039 448 640 362.039 640 256S554.039 64 448 64ZM448 416H192C103.775 416 32 344.225 32 256S103.775 96 192 96H448C536.225 96 608 167.775 608 256S536.225 416 448 416ZM432 280C418.725 280 408 290.725 408 304S418.725 328 432 328S456 317.275 456 304S445.275 280 432 280ZM496 184C482.725 184 472 194.725 472 208S482.725 232 496 232S520 221.275 520 208S509.275 184 496 184ZM256 240H208V192C208 183.156 200.844 176 192 176S176 183.156 176 192V240H128C119.156 240 112 247.156 112 256S119.156 272 128 272H176V320C176 328.844 183.156 336 192 336S208 328.844 208 320V272H256C264.844 272 272 264.844 272 256S264.844 240 256 240Z"/></svg>

<svg xmlns="http://www.w3.org/2000/svg" viewBox="0 0 640 512"><!--! Font Awesome Pro 6.3.0 by @fontawesome - https://fontawesome.com License - https://fontawesome.com/license (Commercial License) Copyright 2023 Fonticons, Inc. --><path d="M448 64H192C85.96 64 0 149.1 0 256s85.96 192 192 192h256c106 0 192-85.96 192-192S554 64 448 64zM448 416H192c-88.22 0-160-71.78-160-160s71.78-160 160-160h256c88.22 0 160 71.78 160 160S536.2 416 448 416zM431.1 280c-13.28 0-23.1 10.72-23.1 24s10.72 24 23.1 24s23.1-10.72 23.1-24S445.2 280 431.1 280zM495.1 184c-13.28 0-23.1 10.72-23.1 24s10.72 24 23.1 24s23.1-10.72 23.1-24S509.2 184 495.1 184zM256 240H208V192c0-8.844-7.18-16-16.02-16S176 183.2 176 192v48H128C119.2 240 111.1 247.2 111.1 256S119.2 272 128 272h48V320c0 8.844 7.132 16 15.98 16S208 328.8 208 320V272H256c8.844 0 15.98-7.156 15.98-16S264.8 240 256 240z"/></svg>
